Catalina-light/actions/22/tool-measure.svg

<?xml version="1.0" encoding="UTF-8" standalone="no"?>
<svg
   xmlns:dc="http://purl.org/dc/elements/1.1/"
   xmlns:cc="http://creativecommons.org/ns#"
   xmlns:rdf="http://www.w3.org/1999/02/22-rdf-syntax-ns#"
   xmlns:svg="http://www.w3.org/2000/svg"
   xmlns="http://www.w3.org/2000/svg"
   xmlns:sodipodi="http://sodipodi.sourceforge.net/DTD/sodipodi-0.dtd"
   xmlns:inkscape="http://www.inkscape.org/namespaces/inkscape"
   width="24"
   height="24"
   viewBox="0 0 6.3499999 6.3500002"
   version="1.1"
   id="svg6"
   inkscape:version="1.0.1 (3bc2e813f5, 2020-09-07)"
   sodipodi:docname="tool-measure.svg">
  <metadata
     id="metadata40">
    <rdf:RDF>
      <cc:Work
         rdf:about="">
        <dc:format>image/svg+xml</dc:format>
        <dc:type
           rdf:resource="http://purl.org/dc/dcmitype/StillImage" />
        <dc:title></dc:title>
      </cc:Work>
    </rdf:RDF>
  </metadata>
  <defs
     id="defs2" />
  <sodipodi:namedview
     id="base"
     pagecolor="#ffffff"
     bordercolor="#666666"
     borderopacity="1.0"
     inkscape:pageopacity="0.0"
     inkscape:pageshadow="2"
     inkscape:zoom="11.313708"
     inkscape:cx="39.399674"
     inkscape:cy="17.901731"
     inkscape:document-units="mm"
     inkscape:current-layer="layer1"
     showgrid="true"
     units="px"
     inkscape:window-width="1920"
     inkscape:window-height="1031"
     inkscape:window-x="0"
     inkscape:window-y="24"
     inkscape:window-maximized="1"
     inkscape:document-rotation="0">
    <inkscape:grid
       type="xygrid"
       id="grid864"
       spacingx="0.066145834"
       spacingy="0.066145834" />
  </sodipodi:namedview>
  <g
     inkscape:label="Layer 1"
     inkscape:groupmode="layer"
     id="layer1">
    <g
       id="g962"
       transform="matrix(0.84353742,0,0,0.84353742,4.6711559,4.1217404)">
      <path
         style="fill:#edda86;fill-opacity:1;stroke:#f7eeca;stroke-width:0.264583px;stroke-linecap:butt;stroke-linejoin:miter;stroke-opacity:1"
         d="M -3.6380209,1.3229167 1.6536457,-1.7322286 0,-3.3858745 -5.2916666,-0.33072916 Z"
         id="path872"
         sodipodi:nodetypes="ccccc" />
      <path
         style="fill:#000000;fill-opacity:0.140606;stroke:none;stroke-width:0.264583px;stroke-linecap:butt;stroke-linejoin:miter;stroke-opacity:1"
         d="M -3.7703125,0.06614583 -3.0427083,0.85989582 -2.778125,0.66145834 -3.5057291,-0.13229167 Z"
         id="path935"
         sodipodi:nodetypes="ccccc" />
      <path
         style="fill:#000000;fill-opacity:0.140606;stroke:none;stroke-width:0.264583px;stroke-linecap:butt;stroke-linejoin:miter;stroke-opacity:1"
         d="m -2.8442709,-0.46302082 0.7276042,0.79374999 0.2645833,-0.19843748 -0.7276041,-0.79375001 z"
         id="path939"
         sodipodi:nodetypes="ccccc" />
      <path
         style="fill:#000000;fill-opacity:0.140606;stroke:none;stroke-width:0.264583px;stroke-linecap:butt;stroke-linejoin:miter;stroke-opacity:1"
         d="M -1.9182292,-0.99218741 -1.190625,-0.1984375 -0.92604175,-0.39687498 -1.6536458,-1.1906249 Z"
         id="path941"
         sodipodi:nodetypes="ccccc" />
      <path
         style="fill:#000000;fill-opacity:0.140606;stroke:none;stroke-width:0.264583px;stroke-linecap:butt;stroke-linejoin:miter;stroke-opacity:1"
         d="M -0.9260417,-1.5875 -0.1984375,-0.79375001 0.06614575,-0.99218747 -0.6614583,-1.7859374 Z"
         id="path943"
         sodipodi:nodetypes="ccccc" />
      <path
         style="fill:#000000;fill-opacity:0.140606;stroke:none;stroke-width:0.264583px;stroke-linecap:butt;stroke-linejoin:miter;stroke-opacity:1"
         d="M 5.9999999e-8,-2.1166668 0.72760426,-1.3229168 0.99218751,-1.5213542 0.26458346,-2.3151042 Z"
         id="path945"
         sodipodi:nodetypes="ccccc" />
    </g>
  </g>
</svg>

<svg width="24" height="24" version="1.1" viewBox="0 0 6.35 6.35" xmlns="http://www.w3.org/2000/svg">
<g transform="matrix(.84354 0 0 .84354 4.6712 4.1217)">
<path d="m-3.638 1.3229 5.2917-3.0551-1.6536-1.6536-5.2917 3.0551z" fill="#edda86" stroke="#f7eeca" stroke-width=".26458px"/>
<path d="m-3.7703 0.066146 0.7276 0.79375 0.26458-0.19844-0.7276-0.79375z" fill-opacity=".14061"/>
<path d="m-2.8443-0.46302 0.7276 0.79375 0.26458-0.19844-0.7276-0.79375z" fill-opacity=".14061"/>
<path d="m-1.9182-0.99219 0.7276 0.79375 0.26458-0.19844-0.7276-0.79375z" fill-opacity=".14061"/>
<path d="m-0.92604-1.5875 0.7276 0.79375 0.26458-0.19844-0.7276-0.79375z" fill-opacity=".14061"/>
<path d="m6e-8 -2.1167 0.7276 0.79375 0.26458-0.19844-0.7276-0.79375z" fill-opacity=".14061"/>
</g>
</svg>
